images/breadcrumbs.svg

<svg width="8" height="21" viewBox="0 0 8 21" fill="none" xmlns="http://www.w3.org/2000/svg">
<path d="M6.91526 9.96875L2.16526 5.71875C1.91526 5.46875 1.41526 5.46875 1.04026 5.71875C0.665263 5.96875 0.790263 6.46875 1.04026 6.71875L5.16526 10.4688L1.16526 14.2188C0.915263 14.4688 0.915263 14.9688 1.16526 15.2188C1.16526 15.3438 1.54026 15.4688 1.66526 15.4688C1.79026 15.4688 2.04026 15.3438 2.16526 15.2188L6.91526 10.9688C7.29026 10.7188 7.29026 10.2188 6.91526 9.96875Z" fill="white"/>
</svg>

<svg xmlns="http://www.w3.org/2000/svg" width="8" height="21" fill="none"><path fill="#fff" d="M6.92 9.97 2.17 5.72c-.25-.25-.75-.25-1.13 0-.37.25-.25.75 0 1l4.13 3.75-4 3.75a.76.76 0 0 0 0 1c0 .12.37.25.5.25.12 0 .37-.13.5-.25l4.75-4.25a.59.59 0 0 0 0-1Z"/></svg>
